X: 1222
T: An Dro
R: reel
M: 4/4
K: Bminor
|:f3g f3e|d2c2 B3B/c/|e2e2 c2BA|Bcde f2B2|
f3g f3e|d2c2 B3B/c/|e2e2 c2BA|1 Bcdc B4:|2 Bcdc B3e||
|:f2b2 B3e|f2b2 c3B/c/|e2e2 c2BA|Bcde f3e|
f2b2 B3e|f2b2 c3B/c/|e2e2 c2BA|1 Bcdc B3e:|2 Bcdc B4||
|:B2AB c2e2|dcBA Bcdc|B2AB c2e2|dcBA B4:|
|:f2ef g2e2|e2de f2d2|B2AB c2e2|dcBA Bcde|
f2ef g2e2|e2de f2d2|B2AB c2e2|dcBA B4:|

